svg/holidays/hanukkah/hanukkah02.svg

<?xml version="1.0" encoding="UTF-8" standalone="no"?>
<!-- Created with Inkscape (http://www.inkscape.org/) -->

<svg
   xmlns:dc="http://purl.org/dc/elements/1.1/"
   xmlns:cc="http://creativecommons.org/ns#"
   xmlns:rdf="http://www.w3.org/1999/02/22-rdf-syntax-ns#"
   xmlns:svg="http://www.w3.org/2000/svg"
   xmlns="http://www.w3.org/2000/svg"
   xmlns:xlink="http://www.w3.org/1999/xlink"
   xmlns:sodipodi="http://sodipodi.sourceforge.net/DTD/sodipodi-0.dtd"
   xmlns:inkscape="http://www.inkscape.org/namespaces/inkscape"
   id="svg1"
   sodipodi:version="0.32"
   inkscape:version="0.47 r22583"
   width="48"
   height="48"
   sodipodi:docname="hanukkah02.svg"
   version="1.1"
   inkscape:export-filename="hanukkah02.png"
   inkscape:export-xdpi="89.949997"
   inkscape:export-ydpi="89.949997">
  <defs
     id="defs3">
    <linearGradient
       id="linearGradient2911">
      <stop
         style="stop-color:#9a5723;stop-opacity:1;"
         offset="0"
         id="stop2913" />
      <stop
         style="stop-color:#db9762;stop-opacity:1;"
         offset="1"
         id="stop2915" />
    </linearGradient>
    <linearGradient
       id="linearGradient3764">
      <stop
         id="stop3766"
         offset="0"
         style="stop-color:#7ed249;stop-opacity:1;" />
      <stop
         id="stop3768"
         offset="1"
         style="stop-color:#286325;stop-opacity:1;" />
    </linearGradient>
    <linearGradient
       inkscape:collect="always"
       xlink:href="#linearGradient2911"
       id="linearGradient3123"
       x1="10"
       y1="15"
       x2="22"
       y2="27"
       gradientUnits="userSpaceOnUse" />
    <linearGradient
       inkscape:collect="always"
       xlink:href="#linearGradient2911"
       id="linearGradient3125"
       x1="14"
       y1="29.326316"
       x2="33"
       y2="39"
       gradientUnits="userSpaceOnUse" />
    <linearGradient
       inkscape:collect="always"
       xlink:href="#linearGradient2911"
       id="linearGradient3127"
       x1="20"
       y1="14"
       x2="27"
       y2="25"
       gradientUnits="userSpaceOnUse" />
    <linearGradient
       inkscape:collect="always"
       xlink:href="#linearGradient2911"
       id="linearGradient3129"
       x1="26.189474"
       y1="11.936328"
       x2="37"
       y2="18"
       gradientUnits="userSpaceOnUse" />
    <linearGradient
       inkscape:collect="always"
       xlink:href="#linearGradient2911"
       id="linearGradient3131"
       x1="13"
       y1="35.078947"
       x2="27"
       y2="35"
       gradientUnits="userSpaceOnUse" />
    <linearGradient
       inkscape:collect="always"
       xlink:href="#linearGradient2911"
       id="linearGradient3133"
       x1="11"
       y1="33.578947"
       x2="14"
       y2="33.578947"
       gradientUnits="userSpaceOnUse" />
    <linearGradient
       inkscape:collect="always"
       xlink:href="#linearGradient3764"
       id="linearGradient4020"
       x1="20.294737"
       y1="23.157894"
       x2="14.147368"
       y2="21.221052"
       gradientUnits="userSpaceOnUse" />
    <linearGradient
       inkscape:collect="always"
       xlink:href="#linearGradient3764"
       id="linearGradient4022"
       x1="30.063158"
       y1="31.621054"
       x2="21.052631"
       y2="25.726316"
       gradientUnits="userSpaceOnUse" />
    <filter
       inkscape:collect="always"
       id="filter4038"
       x="-0.15300401"
       width="1.306008"
       y="-0.17389926"
       height="1.3477985">
      <feGaussianBlur
         inkscape:collect="always"
         stdDeviation="0.25713333"
         id="feGaussianBlur4040" />
    </filter>
    <filter
       inkscape:collect="always"
       id="filter4042"
       x="-0.21351678"
       width="1.4270336"
       y="-0.22465327"
       height="1.4493065">
      <feGaussianBlur
         inkscape:collect="always"
         stdDeviation="0.25713333"
         id="feGaussianBlur4044" />
    </filter>
    <filter
       inkscape:collect="always"
       id="filter4068"
       x="-0.1341097"
       width="1.2682194"
       y="-0.061466941"
       height="1.1229339">
      <feGaussianBlur
         inkscape:collect="always"
         stdDeviation="0.21960603"
         id="feGaussianBlur4070" />
    </filter>
    <filter
       inkscape:collect="always"
       id="filter4082">
      <feGaussianBlur
         inkscape:collect="always"
         stdDeviation="0.17322424"
         id="feGaussianBlur4084" />
    </filter>
    <filter
       inkscape:collect="always"
       id="filter3635"
       x="-0.13567084"
       width="1.2713417"
       y="-0.60350141"
       height="2.2070028">
      <feGaussianBlur
         inkscape:collect="always"
         stdDeviation="1.2281782"
         id="feGaussianBlur3637" />
    </filter>
  </defs>
  <sodipodi:namedview
     id="base"
     pagecolor="#ffffff"
     bordercolor="#666666"
     borderopacity="1.0"
     inkscape:pageopacity="0.0"
     inkscape:pageshadow="2"
     inkscape:zoom="1"
     inkscape:cx="23.56471"
     inkscape:cy="24"
     inkscape:window-width="1153"
     inkscape:window-height="793"
     inkscape:window-x="497"
     inkscape:window-y="24"
     showgrid="false"
     inkscape:window-maximized="0"
     inkscape:current-layer="svg1"
     showguides="true"
     inkscape:guide-bbox="true"
     inkscape:snap-global="true">
    <inkscape:grid
       type="xygrid"
       id="grid2861" />
  </sodipodi:namedview>
  <metadata
     id="metadata4">
    <rdf:RDF>
      <cc:Work
         rdf:about="">
        <dc:format>image/svg+xml</dc:format>
        <dc:type
           rdf:resource="http://purl.org/dc/dcmitype/StillImage" />
        <dc:title />
      </cc:Work>
    </rdf:RDF>
  </metadata>
  <path
     style="fill:#000000;fill-opacity:0.76859502000000002;fill-rule:evenodd;stroke:none;filter:url(#filter3635)"
     d="m 33.178947,39.801636 c 0,1.348737 -7.647288,2.387835 -12.656441,2.387835 -5.009154,0 -9.069876,-1.093368 -9.069876,-2.442105 0,-1.348737 4.060722,-2.442105 9.069876,-2.442105 5.009153,0 12.656441,1.147637 12.656441,2.496375 z"
     id="path3139"
     sodipodi:nodetypes="csssc" />
  <path
     style="color:#000000;fill:url(#linearGradient3131);stroke:none;stroke-width:1px;stroke-linecap:butt;stroke-linejoin:miter;stroke-miterlimit:4;stroke-opacity:1;stroke-dasharray:none;stroke-dashoffset:0;marker:none;visibility:visible;display:inline;overflow:visible;enable-background:accumulate"
     d="M 13.6,40.157895 25.910681,39.692931 13.625231,29.880908 13.6,40.157895 z"
     id="path2967"
     sodipodi:nodetypes="cccc" />
  <path
     style="color:#000000;fill:url(#linearGradient3133);stroke:none;stroke-width:1px;stroke-linecap:butt;stroke-linejoin:miter;stroke-miterlimit:4;stroke-opacity:1;stroke-dasharray:none;stroke-dashoffset:0;marker:none;visibility:visible;display:inline;overflow:visible;enable-background:accumulate"
     d="M 11,27 13.6,40.157895 14.119092,32 11,27 z"
     id="path2965"
     sodipodi:nodetypes="cccc" />
  <path
     sodipodi:nodetypes="ccccc"
     id="path2961"
     d="M 23.073684,20.263158 20,12 l 14,6 3,7 -13.926316,-4.736842 z"
     style="color:#000000;fill:url(#linearGradient3127);stroke:none;stroke-width:1px;marker:none;visibility:visible;display:inline;overflow:visible;enable-background:accumulate" />
  <path
     sodipodi:nodetypes="ccccc"
     id="path2959"
     d="M 24.073684,19.168421 14,34 l -3,-7 9,-15 4.073684,7.168421 z"
     style="color:#000000;fill:url(#linearGradient3123);stroke:none;stroke-width:1px;marker:none;visibility:visible;display:inline;overflow:visible;enable-background:accumulate" />
  <path
     style="color:#000000;fill:url(#linearGradient3125);stroke:none;stroke-width:1px;marker:none;visibility:visible;display:inline;overflow:visible;enable-background:accumulate"
     d="M 24,19 14,34 25.908566,39.699846 37,25 24,19 z"
     id="path2957"
     sodipodi:nodetypes="ccccc" />
  <path
     style="color:#000000;fill:url(#linearGradient3129);stroke:none;stroke-width:1px;stroke-linecap:butt;stroke-linejoin:miter;stroke-miterlimit:4;stroke-opacity:1;stroke-dasharray:none;stroke-dashoffset:0;marker:none;visibility:visible;display:inline;overflow:visible;enable-background:accumulate"
     d="M 26.189474,16.673684 32,5 c 4.35093,-1.7847702 7,1 7,4 l -8,10 c -2,1 -4.024459,0.288367 -4.810526,-2.326316 z"
     id="path2969"
     sodipodi:nodetypes="ccccc" />
  <path
     style="color:#000000;fill:url(#linearGradient4020);stroke:none;stroke-width:1px;marker:none;visibility:visible;display:inline;overflow:visible;enable-background:accumulate;fill-opacity:1"
     d="m 19.29011,17.094736 1.436943,2.647 -3.931076,6.132887 -1.136037,3.093798 -0.378143,-0.151257 0.226886,-2.268857 -1.361315,-2.647 1.134429,-1.0588 1.210057,0.983172 c 0,0 2.041971,-2.722629 2.268856,-3.025143 0.226886,-0.302514 -0.680656,-2.722628 -0.680656,-2.722628 l 1.210056,-0.983172 z"
     id="path3135"
     sodipodi:nodetypes="cccccccccscc" />
  <path
     style="color:#000000;fill:url(#linearGradient4022);stroke:none;stroke-width:1px;stroke-linecap:butt;stroke-linejoin:miter;stroke-miterlimit:4;stroke-opacity:1;stroke-dasharray:none;stroke-dashoffset:0;marker:none;visibility:visible;display:inline;overflow:visible;enable-background:accumulate"
     d="m 25.768421,22.989474 4.294737,2.947368 -4.294737,7.578947 L 21.052632,32 l 0.673684,-1.263158 3.2,0.842105 L 27.2,27.2 24.252632,25.094737 25.768421,22.989474 z"
     id="path3137" />
  <path
     style="color:#000000;fill:#ffffff;stroke:none;stroke-width:1px;stroke-linecap:butt;stroke-linejoin:miter;stroke-miterlimit:4;stroke-opacity:1;stroke-dasharray:none;stroke-dashoffset:0;marker:none;visibility:visible;display:inline;overflow:visible;enable-background:accumulate;filter:url(#filter4038);fill-opacity:0.77777779"
     d="M 36.322959,5.246091 C 33.425062,4.273509 31.063077,5.0277563 32.988392,8.4020202 32.37325,5.4416254 33.935551,4.8878785 36.322959,5.246091 z"
     id="path4026"
     sodipodi:nodetypes="ccc" />
  <path
     style="color:#000000;fill:#ffffff;stroke:none;stroke-width:1px;stroke-linecap:butt;stroke-linejoin:miter;stroke-miterlimit:4;stroke-opacity:1;stroke-dasharray:none;stroke-dashoffset:0;marker:none;visibility:visible;display:inline;overflow:visible;enable-background:accumulate;filter:url(#filter4042);fill-opacity:0.77777779"
     d="m 35.727501,9.8311203 c 1.180818,-0.4356689 2.540135,-0.6259018 2.500925,-2.7391084 0,0 1.84592,2.9177461 -2.500925,2.7391084 z"
     id="path4028"
     sodipodi:nodetypes="ccc" />
  <path
     style="color:#000000;fill:#ffffff;stroke:none;stroke-width:1px;stroke-linecap:butt;stroke-linejoin:miter;stroke-miterlimit:4;stroke-opacity:1;stroke-dasharray:none;stroke-dashoffset:0;marker:none;visibility:visible;display:inline;overflow:visible;enable-background:accumulate;filter:url(#filter4068);fill-opacity:0.64444447"
     d="m 30.30883,9.1165702 -3.691842,7.3241378 0.357275,1.190917 c 0,0 3.215475,-7.9791423 3.334567,-8.5150548 z"
     id="path4046"
     sodipodi:nodetypes="cccc" />
  <path
     style="color:#000000;fill:#ffffff;stroke:none;stroke-width:1px;stroke-linecap:butt;stroke-linejoin:miter;stroke-miterlimit:4;stroke-opacity:1;stroke-dasharray:none;stroke-dashoffset:0;marker:none;visibility:visible;display:inline;overflow:visible;enable-background:accumulate;filter:url(#filter4082);fill-opacity:0.68000001"
     d="m 15.481917,20.370733 -4.227754,6.669133 1.607737,4.346846 c -2.017915,-4.876682 1.145998,-7.59427 2.620017,-11.015979 z"
     id="path4072"
     sodipodi:nodetypes="cccc" />
</svg>

<?xml version="1.0" encoding="UTF-8" standalone="no"?>
<!-- Created with Inkscape (http://www.inkscape.org/) -->
<svg
    xmlns:inkscape="http://www.inkscape.org/namespaces/inkscape"
    xmlns:rdf="http://www.w3.org/1999/02/22-rdf-syntax-ns#"
    xmlns="http://www.w3.org/2000/svg"
    xmlns:sodipodi="http://sodipodi.sourceforge.net/DTD/sodipodi-0.dtd"
    xmlns:cc="http://creativecommons.org/ns#"
    xmlns:xlink="http://www.w3.org/1999/xlink"
    xmlns:dc="http://purl.org/dc/elements/1.1/"
    xmlns:svg="http://www.w3.org/2000/svg"
    xmlns:ns1="http://sozi.baierouge.fr"
    id="svg1"
    sodipodi:docname="hanukkah02.svg"
    inkscape:export-filename="hanukkah02.png"
    viewBox="0 0 48 48"
    sodipodi:version="0.32"
    inkscape:export-xdpi="89.949997"
    version="1.1"
    inkscape:export-ydpi="89.949997"
    inkscape:version="0.47 r22583"
  >
  <defs
      id="defs3"
    >
    <linearGradient
        id="linearGradient2911"
      >
      <stop
          id="stop2913"
          style="stop-color:#9a5723"
          offset="0"
      />
      <stop
          id="stop2915"
          style="stop-color:#db9762"
          offset="1"
      />
    </linearGradient
    >
    <linearGradient
        id="linearGradient3764"
      >
      <stop
          id="stop3766"
          style="stop-color:#7ed249"
          offset="0"
      />
      <stop
          id="stop3768"
          style="stop-color:#286325"
          offset="1"
      />
    </linearGradient
    >
    <linearGradient
        id="linearGradient3123"
        y2="27"
        xlink:href="#linearGradient2911"
        gradientUnits="userSpaceOnUse"
        x2="22"
        y1="15"
        x1="10"
        inkscape:collect="always"
    />
    <linearGradient
        id="linearGradient3125"
        y2="39"
        xlink:href="#linearGradient2911"
        gradientUnits="userSpaceOnUse"
        x2="33"
        y1="29.326"
        x1="14"
        inkscape:collect="always"
    />
    <linearGradient
        id="linearGradient3127"
        y2="25"
        xlink:href="#linearGradient2911"
        gradientUnits="userSpaceOnUse"
        x2="27"
        y1="14"
        x1="20"
        inkscape:collect="always"
    />
    <linearGradient
        id="linearGradient3129"
        y2="18"
        xlink:href="#linearGradient2911"
        gradientUnits="userSpaceOnUse"
        x2="37"
        y1="11.936"
        x1="26.189"
        inkscape:collect="always"
    />
    <linearGradient
        id="linearGradient3131"
        y2="35"
        xlink:href="#linearGradient2911"
        gradientUnits="userSpaceOnUse"
        x2="27"
        y1="35.079"
        x1="13"
        inkscape:collect="always"
    />
    <linearGradient
        id="linearGradient3133"
        y2="33.579"
        xlink:href="#linearGradient2911"
        gradientUnits="userSpaceOnUse"
        x2="14"
        y1="33.579"
        x1="11"
        inkscape:collect="always"
    />
    <linearGradient
        id="linearGradient4020"
        y2="21.221"
        xlink:href="#linearGradient3764"
        gradientUnits="userSpaceOnUse"
        x2="14.147"
        y1="23.158"
        x1="20.295"
        inkscape:collect="always"
    />
    <linearGradient
        id="linearGradient4022"
        y2="25.726"
        xlink:href="#linearGradient3764"
        gradientUnits="userSpaceOnUse"
        x2="21.053"
        y1="31.621"
        x1="30.063"
        inkscape:collect="always"
    />
    <filter
        id="filter4038"
        height="1.3478"
        width="1.306"
        y="-.17390"
        x="-0.153"
        inkscape:collect="always"
      >
      <feGaussianBlur
          id="feGaussianBlur4040"
          stdDeviation="0.25713333"
          inkscape:collect="always"
      />
    </filter
    >
    <filter
        id="filter4042"
        height="1.4493"
        width="1.427"
        y="-.22465"
        x="-.21352"
        inkscape:collect="always"
      >
      <feGaussianBlur
          id="feGaussianBlur4044"
          stdDeviation="0.25713333"
          inkscape:collect="always"
      />
    </filter
    >
    <filter
        id="filter4068"
        height="1.1229"
        width="1.2682"
        y="-.061467"
        x="-.13411"
        inkscape:collect="always"
      >
      <feGaussianBlur
          id="feGaussianBlur4070"
          stdDeviation="0.21960603"
          inkscape:collect="always"
      />
    </filter
    >
    <filter
        id="filter4082"
        inkscape:collect="always"
      >
      <feGaussianBlur
          id="feGaussianBlur4084"
          stdDeviation="0.17322424"
          inkscape:collect="always"
      />
    </filter
    >
    <filter
        id="filter3635"
        height="2.207"
        width="1.2713"
        y="-.60350"
        x="-.13567"
        inkscape:collect="always"
      >
      <feGaussianBlur
          id="feGaussianBlur3637"
          stdDeviation="1.2281782"
          inkscape:collect="always"
      />
    </filter
    >
  </defs
  >
  <sodipodi:namedview
      id="base"
      bordercolor="#666666"
      inkscape:pageshadow="2"
      inkscape:window-y="24"
      pagecolor="#ffffff"
      inkscape:window-height="793"
      inkscape:window-maximized="0"
      inkscape:zoom="1"
      inkscape:window-x="497"
      showgrid="false"
      borderopacity="1.0"
      inkscape:current-layer="svg1"
      inkscape:cx="23.56471"
      inkscape:cy="24"
      inkscape:guide-bbox="true"
      inkscape:snap-global="true"
      inkscape:window-width="1153"
      inkscape:pageopacity="0.0"
      showguides="true"
    >
    <inkscape:grid
        id="grid2861"
        type="xygrid"
    />
  </sodipodi:namedview
  >
  <path
      id="path3139"
      sodipodi:nodetypes="csssc"
      style="filter:url(#filter3635);fill-rule:evenodd;fill:#000000;fill-opacity:.76860"
      d="m33.179 39.802c0 1.3487-7.6473 2.3878-12.656 2.3878-5.0092 0-9.0699-1.0934-9.0699-2.4421s4.0607-2.4421 9.0699-2.4421 12.656 1.1476 12.656 2.4964z"
  />
  <path
      id="path2967"
      sodipodi:nodetypes="cccc"
      style="color:#000000;fill:url(#linearGradient3131)"
      d="m13.6 40.158 12.311-0.465-12.286-9.812-0.025 10.277z"
  />
  <path
      id="path2965"
      sodipodi:nodetypes="cccc"
      style="color:#000000;fill:url(#linearGradient3133)"
      d="m11 27 2.6 13.158 0.519-8.158-3.119-5z"
  />
  <path
      id="path2961"
      sodipodi:nodetypes="ccccc"
      style="color:#000000;fill:url(#linearGradient3127)"
      d="m23.074 20.263-3.074-8.263l14 6 3 7-13.926-4.7368z"
  />
  <path
      id="path2959"
      sodipodi:nodetypes="ccccc"
      style="color:#000000;fill:url(#linearGradient3123)"
      d="m24.074 19.168-10.074 14.832l-3-7 9-15 4.0737 7.1684z"
  />
  <path
      id="path2957"
      sodipodi:nodetypes="ccccc"
      style="color:#000000;fill:url(#linearGradient3125)"
      d="m24 19-10 15 11.909 5.7 11.091-14.7-13-6z"
  />
  <path
      id="path2969"
      sodipodi:nodetypes="ccccc"
      style="color:#000000;fill:url(#linearGradient3129)"
      d="m26.189 16.674 5.811-11.674c4.3509-1.7848 7 1 7 4l-8 10c-2 1-4.0245 0.28837-4.8105-2.3263z"
  />
  <path
      id="path3135"
      sodipodi:nodetypes="cccccccccscc"
      style="color:#000000;fill:url(#linearGradient4020)"
      d="m19.29 17.095 1.4369 2.647-3.9311 6.1329-1.136 3.0938-0.37814-0.15126 0.22689-2.2689-1.3613-2.647 1.1344-1.0588 1.2101 0.98317l2.2689-3.0251c0.22689-0.30251-0.68066-2.7226-0.68066-2.7226l1.2101-0.98317z"
  />
  <path
      id="path3137"
      style="color:#000000;fill:url(#linearGradient4022)"
      d="m25.768 22.989 4.2947 2.9474-4.2947 7.5789l-4.715-1.515 0.67368-1.2632 3.2 0.8421 2.273-4.379-2.947-2.105 1.515-2.106z"
  />
  <path
      id="path4026"
      sodipodi:nodetypes="ccc"
      style="fill-opacity:.77778;color:#000000;filter:url(#filter4038);fill:#ffffff"
      d="m36.323 5.2461c-2.898-0.9726-5.26-0.2183-3.335 3.1559-0.615-2.9604 0.948-3.5141 3.335-3.1559z"
  />
  <path
      id="path4028"
      sodipodi:nodetypes="ccc"
      style="fill-opacity:.77778;color:#000000;filter:url(#filter4042);fill:#ffffff"
      d="m35.728 9.8311c1.1808-0.43567 2.5401-0.6259 2.5009-2.7391 0 0 1.8459 2.9177-2.5009 2.7391z"
  />
  <path
      id="path4046"
      sodipodi:nodetypes="cccc"
      style="fill-opacity:.64444;color:#000000;filter:url(#filter4068);fill:#ffffff"
      d="m30.309 9.1166-3.6918 7.3241 0.35728 1.1909s3.2155-7.9791 3.3346-8.5151z"
  />
  <path
      id="path4072"
      sodipodi:nodetypes="cccc"
      style="fill-opacity:0.68;color:#000000;filter:url(#filter4082);fill:#ffffff"
      d="m15.482 20.371-4.2278 6.6691 1.6077 4.3468c-2.0179-4.8767 1.146-7.5943 2.62-11.016z"
  />
  <metadata
    >
    <rdf:RDF
      >
      <cc:Work
        >
        <dc:format
          >image/svg+xml</dc:format
        >
        <dc:type
            rdf:resource="http://purl.org/dc/dcmitype/StillImage"
        />
        <cc:license
            rdf:resource="http://creativecommons.org/licenses/publicdomain/"
        />
        <dc:publisher
          >
          <cc:Agent
              rdf:about="http://openclipart.org/"
            >
            <dc:title
              >Openclipart</dc:title
            >
          </cc:Agent
          >
        </dc:publisher
        >
        <dc:title
          >Hanukkah Icon</dc:title
        >
        <dc:date
          >2010-11-05T11:21:33</dc:date
        >
        <dc:description
          >Hanukkah - toy\n\nPart of the "Events" set made for WorldLabel.com</dc:description
        >
        <dc:source
          >https://openclipart.org/detail/94051/hanukkah-icon-by-nicubunu-94051</dc:source
        >
        <dc:creator
          >
          <cc:Agent
            >
            <dc:title
              >nicubunu</dc:title
            >
          </cc:Agent
          >
        </dc:creator
        >
        <dc:subject
          >
          <rdf:Bag
            >
            <rdf:li
              >Hanukkah</rdf:li
            >
            <rdf:li
              >color</rdf:li
            >
            <rdf:li
              >event</rdf:li
            >
            <rdf:li
              >events</rdf:li
            >
            <rdf:li
              >holiday</rdf:li
            >
            <rdf:li
              >holidays</rdf:li
            >
            <rdf:li
              >icon</rdf:li
            >
            <rdf:li
              >judaism</rdf:li
            >
            <rdf:li
              >occasion</rdf:li
            >
            <rdf:li
              >occasions</rdf:li
            >
            <rdf:li
              >religion</rdf:li
            >
            <rdf:li
              >worldlabel</rdf:li
            >
          </rdf:Bag
          >
        </dc:subject
        >
      </cc:Work
      >
      <cc:License
          rdf:about="http://creativecommons.org/licenses/publicdomain/"
        >
        <cc:permits
            rdf:resource="http://creativecommons.org/ns#Reproduction"
        />
        <cc:permits
            rdf:resource="http://creativecommons.org/ns#Distribution"
        />
        <cc:permits
            rdf:resource="http://creativecommons.org/ns#DerivativeWorks"
        />
      </cc:License
      >
    </rdf:RDF
    >
  </metadata
  >
</svg
>
